Newaita-dark/apps/48/clementine.svg

<svg height="48pt" viewBox="0 0 48 48" width="48pt" xmlns="http://www.w3.org/2000/svg" xmlns:xlink="http://www.w3.org/1999/xlink"><linearGradient id="a"><stop offset="0" stop-opacity=".313725"/><stop offset=".222222" stop-opacity=".27451"/><stop offset="1" stop-opacity="0"/></linearGradient><radialGradient id="b" cx="450.908936" cy="189.579361" gradientTransform="matrix(.00000026 -.117199 -.210958 -.00000015 66.784728 95.392994)" gradientUnits="userSpaceOnUse" r="21.166656" xlink:href="#a"/><radialGradient id="c" cx="450.908936" cy="189.579361" gradientTransform="matrix(-.00000026 .117199 .210958 .00000015 -19.155178 -11.291223)" gradientUnits="userSpaceOnUse" r="21.166656" xlink:href="#a"/><radialGradient id="d" cx="450.908936" cy="189.579361" gradientTransform="matrix(-.00000026 -.117199 .210958 -.00000015 -19.155178 95.392994)" gradientUnits="userSpaceOnUse" r="21.166656" xlink:href="#a"/><radialGradient id="e" cx="450.908936" cy="189.579361" gradientTransform="matrix(.00000026 .117199 -.210958 .00000015 66.784725 -11.291224)" gradientUnits="userSpaceOnUse" r="21.166656" xlink:href="#a"/><linearGradient id="f" gradientTransform="matrix(.0200401 0 0 .093759 18.698079 20.158175)" gradientUnits="userSpaceOnUse" x1="255.323059" x2="255.323044" y1="233.5" y2="254.666656"><stop offset="0" stop-opacity=".27451"/><stop offset="1" stop-opacity="0"/></linearGradient><linearGradient id="g" gradientUnits="userSpaceOnUse" x1="25.799384" x2="25.799384" y1="42.05096580616" y2="4.34417306195"><stop offset="0" stop-color="#ffa726"/><stop offset="1" stop-color="#ffcc80"/></linearGradient><linearGradient id="h" gradientUnits="userSpaceOnUse" x1="24.217981" x2="24.217981" y1="42.05096580616" y2="4.34417266504"><stop offset="0" stop-color="#ffcc80"/><stop offset="1" stop-color="#ffe0b2"/></linearGradient><linearGradient id="i" gradientUnits="userSpaceOnUse" x1="16.868828" x2="15.876544" y1="6.32874066504" y2="42.05096580616"><stop offset="0" stop-color="#ff7043"/><stop offset="1" stop-color="#ff5722"/></linearGradient><path d="m27.289062 42.050781h3.96875v-1.984375h-3.96875zm0 0" fill="url(#b)"/><path d="m20.339844 42.050781h-3.96875v1.984375h3.96875zm0 0" fill="url(#c)"/><path d="m20.339844 42.050781h-3.96875v-1.984375h3.96875zm0 0" fill="url(#d)"/><path d="m27.289062 42.050781h3.96875v1.984375h-3.96875zm0 0" fill="url(#e)"/><path d="m20.339844 41.554688h6.949218v2.480468h-6.949218zm0 0" fill="url(#f)"/><path d="m20.5625 4.738281c-5.679688.597657-12.625 9.339844-12.625 18.460938 0 10.441406 7.082031 18.851562 15.878906 18.851562 3.875 0 17.859375-3.96875 15.875-7.441406s-10.914062-3.96875-14.882812-14.390625c-1.488282-3.96875-.992188-15.875-4.246094-15.480469zm0 0" fill="url(#g)"/><path d="m17.796875 5.824219c-4.804687 2.699219-9.457031 9.910156-9.457031 17.375 0 10.441406 7.082031 18.851562 15.878906 18.851562 2.578125 0 9.640625-1.757812 13.488281-3.960937-.054687-.003906-.109375-.003906-.164062-.007813-12.566407-.082031-22.660157-9.566406-22.660157-21.335937 0-3.65625.976563-7.09375 2.699219-10.097656.066407-.28125.136719-.554688.214844-.824219zm0 0" fill="url(#h)"/><path d="m16.171875 6.605469c-4.339844 3.148437-8.234375 9.761719-8.234375 16.59375 0 10.441406 7.082031 18.851562 15.878906 18.851562 2.179688 0 7.566406-1.257812 11.503906-2.976562-.03125 0-.0625 0-.09375 0-11.820312 0-21.335937-9.914063-21.335937-22.226563v-.199218c0-3.617188.824219-7.027344 2.28125-10.042969zm0 0" fill="url(#i)"/><path d="m20.714844 4.726562c-.050782 0-.101563.003907-.152344.011719-5.679688.597657-12.625 9.339844-12.625 18.460938 0 .644531.027344 1.28125.082031 1.910156-.035156-.515625-.054687-1.035156-.054687-1.558594 0-9.121093 6.945312-17.863281 12.625-18.460937 3.25-.394532 2.753906 11.511718 4.242187 15.480468 3.972657 10.421876 12.902344 10.917969 14.886719 14.390626.078125.136718.132812.277343.160156.417968.015625-.257812-.042968-.515625-.1875-.769531-1.984375-3.472656-10.914062-3.96875-14.882812-14.390625-1.464844-3.90625-1.007813-15.503906-4.09375-15.492188zm0 0" fill="#fff" fill-opacity=".392157"/><path d="m7.9375 23.011719v.1875c0 10.441406 7.082031 18.851562 15.878906 18.851562 3.691406 0 16.5625-3.601562 16.050782-6.949219-.476563 3.230469-12.503907 6.558594-16.050782 6.558594-8.738281 0-15.785156-8.300781-15.878906-18.648437zm0 0" fill-opacity=".27451"/><path d="m20.710938 4.585938c-.054688 0-.109376.003906-.164063.011718-2.902344.308594-6.078125 2.671875-8.539063 6.09375-2.464843 3.421875-4.210937 7.910156-4.210937 12.507813 0 10.507812 7.132813 18.992187 16.019531 18.992187 1.984375 0 6.4375-.996094 10.183594-2.429687 1.875-.714844 3.566406-1.539063 4.679688-2.414063.558593-.4375.972656-.890625 1.1875-1.363281.214843-.472656.214843-.976563-.054688-1.445313-.515625-.90625-1.46875-1.597656-2.652344-2.300781-1.1875-.699219-2.609375-1.410156-4.09375-2.339843-2.960937-1.851563-6.15625-4.550782-8.128906-9.726563-.726562-1.9375-.980469-5.917969-1.453125-9.347656-.234375-1.714844-.523437-3.296875-.964844-4.441407-.222656-.574218-.480469-1.039062-.804687-1.355468-.28125-.277344-.621094-.441406-1.003906-.441406zm.003906.28125c.304687-.003907.5625.121093.804687.359374.277344.273438.523438.707032.738281 1.257813.425782 1.101563.714844 2.667969.949219 4.378906.46875 3.414063.707031 7.375 1.46875 9.40625 1.996094 5.242188 5.253907 8 8.242188 9.871094 1.496093.933594 2.925781 1.648437 4.097656 2.339844 1.171875.695312 2.078125 1.367187 2.554687 2.199219.226563.398437.226563.777343.039063 1.1875-.183594.410156-.566406.835937-1.101563 1.257812-1.074218.84375-2.75 1.664062-4.605468 2.375-3.71875 1.421875-8.199219 2.410156-10.085938 2.410156-8.707031 0-15.738281-8.332031-15.738281-18.710937 0-4.527344 1.726563-8.96875 4.15625-12.34375 2.429687-3.378907 5.570313-5.6875 8.34375-5.980469h.003906c.042969-.003906.089844-.007812.132813-.007812zm0 0" fill="#212121"/><path d="m20.714844 4.726562c-.050782 0-.101563.003907-.152344.011719-1.660156.175781-3.429688 1.046875-5.101562 2.417969l2.894531-1.324219s.496093-.496093 1.488281.496094c.429688.757813.996094 1.984375-.992188 2.976563-1.984374.992187 1.988282.992187 1.988282.992187 2.976562 0 0 6.945313-1.988282 6.945313 0 0-1.984374 1.984374 2.679688 2.496093 1.472656.160157-1.191406 4.453125.300781 5.445313 1.984375.992187 3.96875-1.117188 4.960938.992187.976562 1.929688-2.15625 2.554688.472656 2.976563 5.484375.875 2.875 1.734375 5.230469 1.984375 1.613281.246093-2.070313 4.722656 1.589844 3.417969 2.628906-.9375 3.660156.351562 3.3125.960937-2.640626 4.671875.363281 1.695313 1.644531 1.328125.769531-.738281 1.070312-1.496094.648437-2.234375-1.984375-3.472656-10.914062-3.96875-14.882812-14.390625-1.464844-3.90625-1.007813-15.503906-4.09375-15.492188zm0 0" fill="#fefefe" fill-opacity=".313725"/></svg>

<?xml version="1.0" encoding="UTF-8"?>
<svg xmlns="http://www.w3.org/2000/svg" xmlns:xlink="http://www.w3.org/1999/xlink" width="48pt" height="48pt" viewBox="0 0 48 48" version="1.1">
<defs>
<radialGradient id="radial0" gradientUnits="userSpaceOnUse" cx="450.908936" cy="189.579361" fx="450.908936" fy="189.579361" r="21.166656" gradientTransform="matrix(0.000000261256,-0.117199,-0.210958,-0.000000152308,66.784728,95.392994)">
<stop offset="0" style="stop-color:rgb(0%,0%,0%);stop-opacity:0.313725;"/>
<stop offset="0.222222" style="stop-color:rgb(0%,0%,0%);stop-opacity:0.27451;"/>
<stop offset="1" style="stop-color:rgb(0%,0%,0%);stop-opacity:0;"/>
</radialGradient>
<radialGradient id="radial1" gradientUnits="userSpaceOnUse" cx="450.908936" cy="189.579361" fx="450.908936" fy="189.579361" r="21.166656" gradientTransform="matrix(-0.000000261256,0.117199,0.210958,0.000000152308,-19.155178,-11.291223)">
<stop offset="0" style="stop-color:rgb(0%,0%,0%);stop-opacity:0.313725;"/>
<stop offset="0.222222" style="stop-color:rgb(0%,0%,0%);stop-opacity:0.27451;"/>
<stop offset="1" style="stop-color:rgb(0%,0%,0%);stop-opacity:0;"/>
</radialGradient>
<radialGradient id="radial2" gradientUnits="userSpaceOnUse" cx="450.908936" cy="189.579361" fx="450.908936" fy="189.579361" r="21.166656" gradientTransform="matrix(-0.000000261256,-0.117199,0.210958,-0.000000152308,-19.155178,95.392994)">
<stop offset="0" style="stop-color:rgb(0%,0%,0%);stop-opacity:0.313725;"/>
<stop offset="0.222222" style="stop-color:rgb(0%,0%,0%);stop-opacity:0.27451;"/>
<stop offset="1" style="stop-color:rgb(0%,0%,0%);stop-opacity:0;"/>
</radialGradient>
<radialGradient id="radial3" gradientUnits="userSpaceOnUse" cx="450.908936" cy="189.579361" fx="450.908936" fy="189.579361" r="21.166656" gradientTransform="matrix(0.000000261256,0.117199,-0.210958,0.000000152308,66.784725,-11.291224)">
<stop offset="0" style="stop-color:rgb(0%,0%,0%);stop-opacity:0.313725;"/>
<stop offset="0.222222" style="stop-color:rgb(0%,0%,0%);stop-opacity:0.27451;"/>
<stop offset="1" style="stop-color:rgb(0%,0%,0%);stop-opacity:0;"/>
</radialGradient>
<linearGradient id="linear0" gradientUnits="userSpaceOnUse" x1="255.323059" y1="233.5" x2="255.323044" y2="254.666656" gradientTransform="matrix(0.0200401,0,0,0.093759,18.698079,20.158175)">
<stop offset="0" style="stop-color:rgb(0%,0%,0%);stop-opacity:0.27451;"/>
<stop offset="1" style="stop-color:rgb(0%,0%,0%);stop-opacity:0;"/>
</linearGradient>
<linearGradient id="linear1" gradientUnits="userSpaceOnUse" x1="1040" y1="1695.118164" x2="1040" y2="175.118134" gradientTransform="matrix(0.0248071,0,0,0.0248071,0,0)">
<stop offset="0" style="stop-color:rgb(100%,65.490196%,14.901961%);stop-opacity:1;"/>
<stop offset="1" style="stop-color:rgb(100%,80%,50.196078%);stop-opacity:1;"/>
</linearGradient>
<linearGradient id="linear2" gradientUnits="userSpaceOnUse" x1="960" y1="1695.118164" x2="960" y2="175.118118" gradientTransform="matrix(0.0248071,0,0,0.0248071,0.403165,0)">
<stop offset="0" style="stop-color:rgb(100%,80%,50.196078%);stop-opacity:1;"/>
<stop offset="1" style="stop-color:rgb(100%,87.843137%,69.803922%);stop-opacity:1;"/>
</linearGradient>
<linearGradient id="linear3" gradientUnits="userSpaceOnUse" x1="680" y1="255.118118" x2="640" y2="1695.118164" gradientTransform="matrix(0.0248071,0,0,0.0248071,0,0)">
<stop offset="0" style="stop-color:rgb(100%,43.921569%,26.27451%);stop-opacity:1;"/>
<stop offset="1" style="stop-color:rgb(100%,34.117647%,13.333333%);stop-opacity:1;"/>
</linearGradient>
</defs>
<g id="surface1">
<path style=" stroke:none;fill-rule:nonzero;fill:url(#radial0);" d="M 27.289062 42.050781 L 31.257812 42.050781 L 31.257812 40.066406 L 27.289062 40.066406 Z M 27.289062 42.050781 "/>
<path style=" stroke:none;fill-rule:nonzero;fill:url(#radial1);" d="M 20.339844 42.050781 L 16.371094 42.050781 L 16.371094 44.035156 L 20.339844 44.035156 Z M 20.339844 42.050781 "/>
<path style=" stroke:none;fill-rule:nonzero;fill:url(#radial2);" d="M 20.339844 42.050781 L 16.371094 42.050781 L 16.371094 40.066406 L 20.339844 40.066406 Z M 20.339844 42.050781 "/>
<path style=" stroke:none;fill-rule:nonzero;fill:url(#radial3);" d="M 27.289062 42.050781 L 31.257812 42.050781 L 31.257812 44.035156 L 27.289062 44.035156 Z M 27.289062 42.050781 "/>
<path style=" stroke:none;fill-rule:nonzero;fill:url(#linear0);" d="M 20.339844 41.554688 L 27.289062 41.554688 L 27.289062 44.035156 L 20.339844 44.035156 Z M 20.339844 41.554688 "/>
<path style=" stroke:none;fill-rule:nonzero;fill:url(#linear1);" d="M 20.5625 4.738281 C 14.882812 5.335938 7.9375 14.078125 7.9375 23.199219 C 7.9375 33.640625 15.019531 42.050781 23.816406 42.050781 C 27.691406 42.050781 41.675781 38.082031 39.691406 34.609375 C 37.707031 31.136719 28.777344 30.640625 24.808594 20.21875 C 23.320312 16.25 23.816406 4.34375 20.5625 4.738281 Z M 20.5625 4.738281 "/>
<path style=" stroke:none;fill-rule:nonzero;fill:url(#linear2);" d="M 17.796875 5.824219 C 12.992188 8.523438 8.339844 15.734375 8.339844 23.199219 C 8.339844 33.640625 15.421875 42.050781 24.21875 42.050781 C 26.796875 42.050781 33.859375 40.292969 37.707031 38.089844 C 37.652344 38.085938 37.597656 38.085938 37.542969 38.082031 C 24.976562 38 14.882812 28.515625 14.882812 16.746094 C 14.882812 13.089844 15.859375 9.652344 17.582031 6.648438 C 17.648438 6.367188 17.71875 6.09375 17.796875 5.824219 Z M 17.796875 5.824219 "/>
<path style=" stroke:none;fill-rule:nonzero;fill:url(#linear3);" d="M 16.171875 6.605469 C 11.832031 9.753906 7.9375 16.367188 7.9375 23.199219 C 7.9375 33.640625 15.019531 42.050781 23.816406 42.050781 C 25.996094 42.050781 31.382812 40.792969 35.320312 39.074219 C 35.289062 39.074219 35.257812 39.074219 35.226562 39.074219 C 23.40625 39.074219 13.890625 29.160156 13.890625 16.847656 L 13.890625 16.648438 C 13.890625 13.03125 14.714844 9.621094 16.171875 6.605469 Z M 16.171875 6.605469 "/>
<path style=" stroke:none;fill-rule:nonzero;fill:rgb(100%,100%,100%);fill-opacity:0.392157;" d="M 20.714844 4.726562 C 20.664062 4.726562 20.613281 4.730469 20.5625 4.738281 C 14.882812 5.335938 7.9375 14.078125 7.9375 23.199219 C 7.9375 23.84375 7.964844 24.480469 8.019531 25.109375 C 7.984375 24.59375 7.964844 24.074219 7.964844 23.550781 C 7.964844 14.429688 14.910156 5.6875 20.589844 5.089844 C 23.839844 4.695312 23.34375 16.601562 24.832031 20.570312 C 28.804688 30.992188 37.734375 31.488281 39.71875 34.960938 C 39.796875 35.097656 39.851562 35.238281 39.878906 35.378906 C 39.894531 35.121094 39.835938 34.863281 39.691406 34.609375 C 37.707031 31.136719 28.777344 30.640625 24.808594 20.21875 C 23.34375 16.3125 23.800781 4.714844 20.714844 4.726562 Z M 20.714844 4.726562 "/>
<path style=" stroke:none;fill-rule:nonzero;fill:rgb(0%,0%,0%);fill-opacity:0.27451;" d="M 7.9375 23.011719 C 7.9375 23.074219 7.9375 23.136719 7.9375 23.199219 C 7.9375 33.640625 15.019531 42.050781 23.816406 42.050781 C 27.507812 42.050781 40.378906 38.449219 39.867188 35.101562 C 39.390625 38.332031 27.363281 41.660156 23.816406 41.660156 C 15.078125 41.660156 8.03125 33.359375 7.9375 23.011719 Z M 7.9375 23.011719 "/>
<path style=" stroke:none;fill-rule:nonzero;fill:rgb(12.941177%,12.941177%,12.941177%);fill-opacity:1;" d="M 20.710938 4.585938 C 20.65625 4.585938 20.601562 4.589844 20.546875 4.597656 C 17.644531 4.90625 14.46875 7.269531 12.007812 10.691406 C 9.542969 14.113281 7.796875 18.601562 7.796875 23.199219 C 7.796875 33.707031 14.929688 42.191406 23.816406 42.191406 C 25.800781 42.191406 30.253906 41.195312 34 39.761719 C 35.875 39.046875 37.566406 38.222656 38.679688 37.347656 C 39.238281 36.910156 39.652344 36.457031 39.867188 35.984375 C 40.082031 35.511719 40.082031 35.007812 39.8125 34.539062 C 39.296875 33.632812 38.34375 32.941406 37.160156 32.238281 C 35.972656 31.539062 34.550781 30.828125 33.066406 29.898438 C 30.105469 28.046875 26.910156 25.347656 24.9375 20.171875 C 24.210938 18.234375 23.957031 14.253906 23.484375 10.824219 C 23.25 9.109375 22.960938 7.527344 22.519531 6.382812 C 22.296875 5.808594 22.039062 5.34375 21.714844 5.027344 C 21.433594 4.75 21.09375 4.585938 20.710938 4.585938 Z M 20.714844 4.867188 C 21.019531 4.863281 21.277344 4.988281 21.519531 5.226562 C 21.796875 5.5 22.042969 5.933594 22.257812 6.484375 C 22.683594 7.585938 22.972656 9.152344 23.207031 10.863281 C 23.675781 14.277344 23.914062 18.238281 24.675781 20.269531 C 26.671875 25.511719 29.929688 28.269531 32.917969 30.140625 C 34.414062 31.074219 35.84375 31.789062 37.015625 32.480469 C 38.1875 33.175781 39.09375 33.847656 39.570312 34.679688 C 39.796875 35.078125 39.796875 35.457031 39.609375 35.867188 C 39.425781 36.277344 39.042969 36.703125 38.507812 37.125 C 37.433594 37.96875 35.757812 38.789062 33.902344 39.5 C 30.183594 40.921875 25.703125 41.910156 23.816406 41.910156 C 15.109375 41.910156 8.078125 33.578125 8.078125 23.199219 C 8.078125 18.671875 9.804688 14.230469 12.234375 10.855469 C 14.664062 7.476562 17.804688 5.167969 20.578125 4.875 L 20.582031 4.875 C 20.625 4.871094 20.671875 4.867188 20.714844 4.867188 Z M 20.714844 4.867188 "/>
<path style=" stroke:none;fill-rule:nonzero;fill:rgb(99.607843%,99.607843%,99.607843%);fill-opacity:0.313725;" d="M 20.714844 4.726562 C 20.664062 4.726562 20.613281 4.730469 20.5625 4.738281 C 18.902344 4.914062 17.132812 5.785156 15.460938 7.15625 L 18.355469 5.832031 C 18.355469 5.832031 18.851562 5.335938 19.84375 6.328125 C 20.273438 7.085938 20.839844 8.3125 18.851562 9.304688 C 16.867188 10.296875 20.839844 10.296875 20.839844 10.296875 C 23.816406 10.296875 20.839844 17.242188 18.851562 17.242188 C 18.851562 17.242188 16.867188 19.226562 21.53125 19.738281 C 23.003906 19.898438 20.339844 24.191406 21.832031 25.183594 C 23.816406 26.175781 25.800781 24.066406 26.792969 26.175781 C 27.769531 28.105469 24.636719 28.730469 27.265625 29.152344 C 32.75 30.027344 30.140625 30.886719 32.496094 31.136719 C 34.109375 31.382812 30.425781 35.859375 34.085938 34.554688 C 36.714844 33.617188 37.746094 34.90625 37.398438 35.515625 C 34.757812 40.1875 37.761719 37.210938 39.042969 36.84375 C 39.8125 36.105469 40.113281 35.347656 39.691406 34.609375 C 37.707031 31.136719 28.777344 30.640625 24.808594 20.21875 C 23.34375 16.3125 23.800781 4.714844 20.714844 4.726562 Z M 20.714844 4.726562 "/>
</g>
</svg>
